.local/share/icons/Gruvbox-Plus-Dark/actions/symbolic/format-text-direction-rtl-symbolic.svg

<svg xmlns="http://www.w3.org/2000/svg" width="16" height="16" version="1.1">
 <path style="fill:#ebdbb2" d="M 6,0 V 2 H 12 C 12.43,2 13,2.61 13,3 V 4 H 8 C 7.08,4 6.26,4.38 5.75,4.97 5.24,5.55 5,6.28 5,7 5,7.72 5.27,8.45 5.78,9.03 6.29,9.61 7.09,10 8,10 H 15 V 3 C 15,1.37 13.68,0 12,0 Z M 8,6 H 13 V 8 H 8 C 7.6,8 7.43,7.89 7.28,7.72 7.13,7.55 7,7.28 7,7 7,6.72 7.1,6.45 7.25,6.28 7.4,6.12 7.58,6 8,6 Z"/>
 <path style="fill:#ebdbb2" d="M 0,12 4,9 V 15 Z"/>
 <path style="fill:#ebdbb2" d="M 2,11 V 13 H 15 V 11 Z"/>
</svg>

<svg width="16" height="16" version="1.1" xmlns="http://www.w3.org/2000/svg">
  <defs>
    <style id="current-color-scheme" type="text/css">.ColorScheme-Text { color:#ebdbb2; } .ColorScheme-Highlight { color:#458588; }</style>
  </defs>
  <path class="ColorScheme-Text" d="m4 9v2h11v2h-11v2l-4-3zm2-9v2h6s1 0 1 1v1h-5c-3 0-3 3-3 3s0 3 3 3h7v-7c0-3-3-3-3-3zm2 6h5v2h-5c-1 0-1-1-1-1s0-1 1-1z" fill="currentColor"/>
</svg>
